packages/icons/src/SVG/storage.svg

<!-- Generated by IcoMoon.io -->
<svg version="1.1" xmlns="http://www.w3.org/2000/svg" width="12" height="12" viewBox="0 0 12 12">
<title>storage</title>
<path d="M8 6h-4v1h4v-1z"></path>
<path d="M0 1h12v3h-1v8h-10v-8h-1v-3zM11 2h-10v1h10v-1zM10 5h-8v6h8v-6z"></path>
</svg>

<svg width="12" height="12" viewBox="0 0 12 12" fill="none" xmlns="http://www.w3.org/2000/svg">
<path d="M8 6H4V7H8V6Z" fill="#4C505B"/>
<path fill-rule="evenodd" clip-rule="evenodd" d="M0 1V4H1V12H11V4H12V1H0ZM11 2H1V3H11V2ZM10 5H2V11H10V5Z" fill="#4C505B"/>
</svg>
